fs/drink_bottle_20_filled.svg

<svg viewBox="0 0 20 20" fill="none" xmlns="http://www.w3.org/2000/svg" height="1em" width="1em">
  <path d="M7 3.5C7 4.13701 7.39709 4.68129 7.95723 4.89879C7.84121 5.40595 7.49295 5.78144 6.95958 6.33097L6.95876 6.33183L6.95806 6.33255C6.85372 6.44004 6.743 6.55412 6.63047 6.67431C5.63884 7.48841 5 8.67062 5 10C5 10.0941 5.00321 10.1875 5.00955 10.2803C5.00322 10.3528 5 10.4261 5 10.5V15.5C5 16.8807 6.11929 18 7.5 18C7.95491 18 8.38217 17.8781 8.75 17.6654C9.11784 17.8781 9.54509 18 10 18C10.4549 18 10.8822 17.8781 11.25 17.6654C11.6178 17.8781 12.0451 18 12.5 18C13.8807 18 15 16.8807 15 15.5V10.5C15 10.4261 14.9968 10.3528 14.9904 10.2803C14.9968 10.1875 15 10.0941 15 10C15 9.18447 14.7589 8.42115 14.3414 7.7651C14.3337 7.75063 14.3252 7.73646 14.316 7.72265C13.918 7.12556 13.4632 6.67765 13.0798 6.30003L13.0694 6.28982C12.5244 5.75301 12.1683 5.38409 12.0466 4.89729C12.6047 4.67879 13 4.13556 13 3.5C13 2.67157 12.3284 2 11.5 2H8.5C7.67157 2 7 2.67157 7 3.5ZM6 15.5V15H14V15.5C14 16.3284 13.3284 17 12.5 17C12.1448 17 11.8196 16.8772 11.5627 16.6712C11.38 16.5247 11.12 16.5247 10.9373 16.6712C10.6804 16.8772 10.3552 17 10 17C9.64478 17 9.31963 16.8772 9.06274 16.6712C8.87998 16.5247 8.62002 16.5247 8.43727 16.6712C8.18037 16.8772 7.85522 17 7.5 17C6.67157 17 6 16.3284 6 15.5ZM8.95643 5H11.0462C11.2113 5.86436 11.7904 6.43422 12.3235 6.95875L12.3654 7H7.70382L7.71652 6.98693C8.24219 6.44577 8.79914 5.87242 8.95643 5ZM11.5 4H8.5C8.22386 4 8 3.77614 8 3.5C8 3.22386 8.22386 3 8.5 3H11.5C11.7761 3 12 3.22386 12 3.5C12 3.77614 11.7761 4 11.5 4Z" fill="#212121"/>
</svg>

<svg viewBox="0 0 20 20" fill="none" xmlns="http://www.w3.org/2000/svg" height="1em" width="1em">
  <path d="M7 3.5a1.5 1.5 0 0 0 .957 1.399c-.116.507-.464.882-.997 1.432h-.001v.002c-.105.107-.216.221-.329.341C5.64 7.488 5 8.671 5 10c0 .094.003.188.01.28-.007.073-.01.146-.01.22v5a2.5 2.5 0 0 0 3.75 2.165A2.49 2.49 0 0 0 10 18a2.49 2.49 0 0 0 1.25-.335A2.5 2.5 0 0 0 15 15.5v-5c0-.074-.003-.147-.01-.22a4.144 4.144 0 0 0-.674-2.558c-.398-.596-.853-1.044-1.236-1.422l-.01-.01c-.546-.537-.902-.906-1.023-1.393A1.5 1.5 0 0 0 11.5 2h-3A1.5 1.5 0 0 0 7 3.5Zm-1 12V15h8v.5a1.5 1.5 0 0 1-2.437 1.171.5.5 0 0 0-.626 0A1.491 1.491 0 0 1 10 17c-.355 0-.68-.123-.937-.329a.5.5 0 0 0-.626 0A1.5 1.5 0 0 1 6 15.5ZM8.956 5h2.09c.165.864.744 1.434 1.277 1.959l.042.041H7.704l.013-.013C8.242 6.446 8.799 5.872 8.957 5ZM11.5 4h-3a.5.5 0 0 1 0-1h3a.5.5 0 0 1 0 1Z" fill="#212121"/>
</svg>
